Faba/24x24/actions/address-book-new.svg

<?xml version="1.0" encoding="UTF-8" standalone="no"?>
<!-- Created with Inkscape (http://www.inkscape.org/) -->

<svg
   xmlns:dc="http://purl.org/dc/elements/1.1/"
   xmlns:cc="http://creativecommons.org/ns#"
   xmlns:rdf="http://www.w3.org/1999/02/22-rdf-syntax-ns#"
   xmlns:svg="http://www.w3.org/2000/svg"
   xmlns="http://www.w3.org/2000/svg"
   xmlns:sodipodi="http://sodipodi.sourceforge.net/DTD/sodipodi-0.dtd"
   xmlns:inkscape="http://www.inkscape.org/namespaces/inkscape"
   width="24"
   height="24"
   id="svg3495"
   version="1.1"
   inkscape:version="0.48.4 r9939"
   sodipodi:docname="contact-new.svg">
  <defs
     id="defs3497">
    <clipPath
       clipPathUnits="userSpaceOnUse"
       id="clipPath3669">
      <path
         inkscape:connector-curvature="0"
         d="M 0,96 96,96 96,0 0,0 0,96 z"
         id="path3671" />
    </clipPath>
  </defs>
  <sodipodi:namedview
     id="base"
     pagecolor="#ffffff"
     bordercolor="#666666"
     borderopacity="1.0"
     inkscape:pageopacity="0.0"
     inkscape:pageshadow="2"
     inkscape:zoom="1"
     inkscape:cx="9.5684496"
     inkscape:cy="18.777561"
     inkscape:current-layer="layer1"
     showgrid="false"
     inkscape:grid-bbox="true"
     inkscape:document-units="px"
     inkscape:window-width="1364"
     inkscape:window-height="701"
     inkscape:window-x="0"
     inkscape:window-y="27"
     inkscape:window-maximized="1"
     inkscape:snap-bbox="true"
     inkscape:bbox-paths="true"
     inkscape:bbox-nodes="true"
     inkscape:snap-bbox-edge-midpoints="false"
     showguides="true"
     inkscape:guide-bbox="true">
    <inkscape:grid
       type="xygrid"
       id="grid3512"
       empspacing="4"
       visible="true"
       enabled="true"
       snapvisiblegridlinesonly="true"
       dotted="false" />
  </sodipodi:namedview>
  <metadata
     id="metadata3500">
    <rdf:RDF>
      <cc:Work
         rdf:about="">
        <dc:format>image/svg+xml</dc:format>
        <dc:type
           rdf:resource="http://purl.org/dc/dcmitype/StillImage" />
        <dc:title></dc:title>
      </cc:Work>
    </rdf:RDF>
  </metadata>
  <g
     id="layer1"
     inkscape:label="Layer 1"
     inkscape:groupmode="layer"
     transform="translate(1,-25)">
    <g
       id="g3860">
      <g
         transform="translate(0.691495,18.112698)"
         id="g3852" />
      <rect
         y="43"
         x="14"
         height="2"
         width="6"
         id="rect3856"
         style="color:#000000;fill:#555555;fill-opacity:1;fill-rule:nonzero;stroke:none;stroke-width:2;marker:none;visibility:visible;display:inline;overflow:visible;enable-background:accumulate" />
      <rect
         style="color:#000000;fill:#555555;fill-opacity:1;fill-rule:nonzero;stroke:none;stroke-width:2;marker:none;visibility:visible;display:inline;overflow:visible;enable-background:accumulate"
         id="rect3858"
         width="6"
         height="2"
         x="41"
         y="16"
         transform="matrix(0,1,1,0,0,0)" />
    </g>
    <g
       id="g3879"
       style="opacity:0.1;fill:#ffffff;fill-opacity:1"
       transform="translate(0,-1)">
      <g
         id="g3881"
         transform="translate(0.691495,18.112698)"
         style="fill:#ffffff;fill-opacity:1" />
      <rect
         style="color:#000000;fill:#ffffff;fill-opacity:1;fill-rule:nonzero;stroke:none;stroke-width:2;marker:none;visibility:visible;display:inline;overflow:visible;enable-background:accumulate"
         id="rect3887"
         width="6"
         height="2"
         x="14"
         y="43" />
      <rect
         transform="matrix(0,1,1,0,0,0)"
         y="16"
         x="41"
         height="2"
         width="6"
         id="rect3889"
         style="color:#000000;fill:#ffffff;fill-opacity:1;fill-rule:nonzero;stroke:none;stroke-width:2;marker:none;visibility:visible;display:inline;overflow:visible;enable-background:accumulate" />
    </g>
    <path
       style="opacity:1;color:#000000;fill:#555555;fill-opacity:1;fill-rule:nonzero;stroke:none;stroke-width:4;stroke-linecap:square;stroke-linejoin:round;stroke-miterlimit:4;stroke-opacity:1;stroke-dasharray:none;marker:none;visibility:visible;display:inline;overflow:visible;enable-background:accumulate"
       d="M 2 1 L 2 16 L 15 16 L 15 1 L 2 1 z M 4 3 L 13 3 L 13 14 L 4 14 L 4 3 z M 8.71875 4.71875 C 7.6382741 4.7187557 6.7765397 5.0346367 6.125 5.71875 C 5.4734579 6.4001579 5.1113654 7.3353725 5.0625 8.5 C 5.016349 9.6754904 5.2831827 10.605275 5.875 11.28125 C 6.4668153 11.957223 7.3094859 12.281248 8.40625 12.28125 C 8.6750071 12.281248 8.970376 12.252652 9.25 12.1875 C 9.5323301 12.125059 9.7556064 12.051518 9.9375 11.9375 L 9.78125 11.25 C 9.6020714 11.326012 9.4032883 11.388633 9.15625 11.4375 C 8.9119179 11.489079 8.6655358 11.531249 8.4375 11.53125 C 7.6176408 11.531249 7.0022885 11.258986 6.5625 10.71875 C 6.125423 10.178514 5.9225981 9.4311625 5.96875 8.5 C 6.0094702 7.5444086 6.266772 6.803814 6.75 6.25 C 7.2332243 5.6961944 7.8676405 5.406255 8.6875 5.40625 C 9.5317846 5.406255 10.157996 5.671701 10.5625 6.1875 C 10.966993 6.7005927 11.16843 7.4234506 11.125 8.34375 C 11.103276 8.7889717 10.997097 9.1443076 10.8125 9.4375 C 10.630606 9.7279797 10.366547 9.8750006 10.0625 9.875 C 9.9864817 9.8750006 9.9523958 9.8368728 9.90625 9.75 C 9.8628089 9.6604138 9.8301713 9.4861848 9.84375 9.25 L 10.0625 6.9375 L 10.03125 6.9375 C 9.8023661 6.7989008 9.5685823 6.6617706 9.375 6.59375 C 9.1768185 6.5231702 8.9222315 6.5000039 8.59375 6.5 C 8.1268086 6.5000039 7.7347327 6.7150755 7.40625 7.125 C 7.080477 7.5349312 6.8830817 8.0685985 6.8125 8.75 C 6.7554883 9.2820934 6.8480323 9.7081947 7.0625 10.03125 C 7.2769634 10.351591 7.5642486 10.53125 7.96875 10.53125 C 8.1967862 10.53125 8.3941816 10.45777 8.5625 10.34375 C 8.7335258 10.227016 8.888691 10.043255 9 9.8125 C 9.06515 10.037825 9.1835751 10.218871 9.34375 10.34375 C 9.503916 10.465914 9.6863499 10.53125 9.90625 10.53125 C 10.568645 10.53125 11.072329 10.309361 11.40625 9.875 C 11.740158 9.4379252 11.91306 8.940998 11.9375 8.34375 C 11.980929 7.219844 11.720913 6.3336162 11.15625 5.6875 C 10.59429 5.0413934 9.7802149 4.7187557 8.71875 4.71875 z M 8.75 7.28125 C 8.807006 7.2812532 8.8804861 7.2703941 8.9375 7.28125 C 8.9945058 7.2893974 9.0340212 7.3301794 9.09375 7.34375 L 8.9375 9.15625 C 8.8506238 9.3761463 8.7417307 9.5435582 8.625 9.625 C 8.5109766 9.7064434 8.3965934 9.7500007 8.25 9.75 C 8.0871114 9.7500007 7.9795454 9.6656009 7.90625 9.5 C 7.8356634 9.3316862 7.7880643 9.0757722 7.8125 8.75 C 7.8586479 8.2586312 7.9784001 7.9005806 8.125 7.65625 C 8.2743082 7.4092102 8.4676617 7.2812532 8.75 7.28125 z "
       transform="translate(0,26)"
       id="rect2997" />
    <path
       id="path3775"
       d="m 2,26 0,15 13,0 0,-15 -13,0 z m 2,2 9,0 0,11 -9,0 0,-11 z m 4.71875,1.71875 c -1.0804759,6e-6 -1.9422103,0.315887 -2.59375,1 -0.6515421,0.681408 -1.0136346,1.616622 -1.0625,2.78125 -0.046151,1.17549 0.2206827,2.105275 0.8125,2.78125 0.5918153,0.675973 1.4344859,0.999998 2.53125,1 0.2687571,-2e-6 0.564126,-0.0286 0.84375,-0.09375 0.2823301,-0.06244 0.5056064,-0.135982 0.6875,-0.25 L 9.78125,36.25 c -0.1791786,0.07601 -0.3779617,0.138633 -0.625,0.1875 -0.2443321,0.05158 -0.4907142,0.09375 -0.71875,0.09375 -0.8198592,-10e-7 -1.4352115,-0.272264 -1.875,-0.8125 C 6.125423,35.178514 5.9225981,34.431162 5.96875,33.5 6.0094702,32.544409 6.266772,31.803814 6.75,31.25 c 0.4832243,-0.553806 1.1176405,-0.843745 1.9375,-0.84375 0.8442846,5e-6 1.470496,0.265451 1.875,0.78125 0.404493,0.513093 0.60593,1.235951 0.5625,2.15625 -0.02172,0.445222 -0.127903,0.800558 -0.3125,1.09375 -0.181894,0.29048 -0.445953,0.437501 -0.75,0.4375 -0.076018,10e-7 -0.1101042,-0.03813 -0.15625,-0.125 -0.043441,-0.08959 -0.076079,-0.263815 -0.0625,-0.5 l 0.21875,-2.3125 -0.03125,0 C 9.8023661,31.798901 9.5685823,31.661771 9.375,31.59375 9.1768185,31.52317 8.9222315,31.500004 8.59375,31.5 c -0.4669414,4e-6 -0.8590173,0.215075 -1.1875,0.625 -0.325773,0.409931 -0.5231683,0.943598 -0.59375,1.625 -0.057012,0.532093 0.035532,0.958195 0.25,1.28125 0.2144634,0.320341 0.5017486,0.5 0.90625,0.5 0.2280362,0 0.4254316,-0.07348 0.59375,-0.1875 C 8.7335258,35.227016 8.888691,35.043255 9,34.8125 c 0.06515,0.225325 0.1835751,0.406371 0.34375,0.53125 0.160166,0.122164 0.3425999,0.1875 0.5625,0.1875 0.662395,0 1.166079,-0.221889 1.5,-0.65625 0.333908,-0.437075 0.50681,-0.934002 0.53125,-1.53125 0.04343,-1.123906 -0.216587,-2.010134 -0.78125,-2.65625 -0.56196,-0.646107 -1.3760351,-0.968744 -2.4375,-0.96875 z M 8.75,32.28125 c 0.057006,3e-6 0.1304861,-0.01086 0.1875,0 0.057006,0.0081 0.096521,0.04893 0.15625,0.0625 L 8.9375,34.15625 C 8.8506238,34.376146 8.7417307,34.543558 8.625,34.625 8.5109766,34.706443 8.3965934,34.750001 8.25,34.75 8.0871114,34.750001 7.9795454,34.665601 7.90625,34.5 7.8356634,34.331686 7.7880643,34.075772 7.8125,33.75 7.8586479,33.258631 7.9784001,32.900581 8.125,32.65625 8.2743082,32.40921 8.4676617,32.281253 8.75,32.28125 z"
       style="opacity:0.1;color:#000000;fill:#ffffff;fill-opacity:1;fill-rule:nonzero;stroke:none;stroke-width:4;marker:none;visibility:visible;display:inline;overflow:visible;enable-background:accumulate"
       inkscape:connector-curvature="0" />
  </g>
</svg>

<svg xmlns="http://www.w3.org/2000/svg" viewBox="0 0 24 24" xmlns:xlink="http://www.w3.org/1999/xlink"><defs><clipPath><path d="m0 96h96v-96h-96v96"/></clipPath></defs><g transform="translate(1-25)" color="#000"><g fill="#555"><path d="m14 43h6v2h-6z" id="0"/><path transform="matrix(0 1 1 0 0 0)" d="m41 16h6v2h-6z" id="1"/></g><g transform="translate(0-1)" opacity=".1" fill="#fff"><use xlink:href="#0"/><use xlink:href="#1"/></g><path d="m2 1v15h13v-15h-13m2 2h9v11h-9v-11m4.719 1.719c-1.08 0-1.942.316-2.594 1-.652.681-1.014 1.617-1.063 2.781-.046 1.175.221 2.105.813 2.781.592.676 1.434 1 2.531 1 .269 0 .564-.029.844-.094.282-.062.506-.136.688-.25l-.156-.688c-.179.076-.378.139-.625.188-.244.052-.491.094-.719.094-.82 0-1.435-.272-1.875-.813-.437-.54-.64-1.288-.594-2.219.041-.956.298-1.696.781-2.25.483-.554 1.118-.844 1.938-.844.844 0 1.47.265 1.875.781.404.513.606 1.236.563 2.156-.022.445-.128.801-.313 1.094-.182.29-.446.438-.75.438-.076 0-.11-.038-.156-.125-.043-.09-.076-.264-.063-.5l.219-2.313h-.031c-.229-.139-.463-.276-.656-.344-.198-.071-.453-.094-.781-.094-.467 0-.859.215-1.188.625-.326.41-.523.944-.594 1.625-.057.532.036.958.25 1.281.214.32.502.5.906.5.228 0 .425-.073.594-.188.171-.117.326-.3.438-.531.065.225.184.406.344.531.16.122.343.188.563.188.662 0 1.166-.222 1.5-.656.334-.437.507-.934.531-1.531.043-1.124-.217-2.01-.781-2.656-.562-.646-1.376-.969-2.438-.969m.031 2.563c.057 0 .13-.011.188 0 .057.008.097.049.156.063l-.156 1.813c-.087.22-.196.387-.313.469-.114.081-.228.125-.375.125-.163 0-.27-.084-.344-.25-.071-.168-.118-.424-.094-.75.046-.491.166-.849.313-1.094.149-.247.343-.375.625-.375" transform="translate(0 26)" opacity="1" fill="#555"/><path d="m2 26v15h13v-15h-13m2 2h9v11h-9v-11m4.719 1.719c-1.08 0-1.942.316-2.594 1-.652.681-1.014 1.617-1.063 2.781-.046 1.175.221 2.105.813 2.781.592.676 1.434 1 2.531 1 .269 0 .564-.029.844-.094.282-.062.506-.136.688-.25l-.156-.688c-.179.076-.378.139-.625.188-.244.052-.491.094-.719.094-.82 0-1.435-.272-1.875-.813-.437-.54-.64-1.288-.594-2.219.041-.956.298-1.696.781-2.25.483-.554 1.118-.844 1.938-.844.844 0 1.47.265 1.875.781.404.513.606 1.236.563 2.156-.022.445-.128.801-.313 1.094-.182.29-.446.438-.75.438-.076 0-.11-.038-.156-.125-.043-.09-.076-.264-.063-.5l.219-2.313h-.031c-.229-.139-.463-.276-.656-.344-.198-.071-.453-.094-.781-.094-.467 0-.859.215-1.188.625-.326.41-.523.944-.594 1.625-.057.532.036.958.25 1.281.214.32.502.5.906.5.228 0 .425-.073.594-.188.171-.117.326-.3.438-.531.065.225.184.406.344.531.16.122.343.188.563.188.662 0 1.166-.222 1.5-.656.334-.437.507-.934.531-1.531.043-1.124-.217-2.01-.781-2.656-.562-.646-1.376-.969-2.438-.969m.031 2.563c.057 0 .13-.011.188 0 .057.008.097.049.156.063l-.156 1.813c-.087.22-.196.387-.313.469-.114.081-.228.125-.375.125-.163 0-.27-.084-.344-.25-.071-.168-.118-.424-.094-.75.046-.491.166-.849.313-1.094.149-.247.343-.375.625-.375" opacity=".1" fill="#fff"/></g></svg>
